libs/ui/packages/crypto-icons/src/svg/NEOS.svg

<svg width="24" height="24" viewBox="0 0 24 24" fill="none">
<path fill-rule="evenodd" clip-rule="evenodd" d="M7.875 7.0185L13.9822 10.713V13.0358L9.69675 10.461V19.5H7.875V7.0185ZM16.125 16.9815L10.0178 13.287V10.965L14.3032 13.5397V4.5H16.125V16.9815Z" fill="#E5F300"/>
</svg>

<svg width="24" height="24" viewBox="0 0 24 24" fill="none"><path fill="#e5f300" fill-rule="evenodd" d="m7.875 7.019 6.107 3.694v2.323L9.697 10.46v9.04H7.875zm8.25 9.963-6.107-3.695v-2.322l4.285 2.575V4.5h1.822z" clip-rule="evenodd"/></svg>
